<?xml version="1.0" encoding="UTF-8"?>
<map version="1.10" tiledversion="1.11.2" orientation="orthogonal" renderorder="right-down" width="10" height="10" tilewidth="16" tileheight="16" infinite="0" nextlayerid="2" nextobjectid="1">
 <tileset firstgid="1" source="Tileset.tsx"/>
 <layer id="1" name="Background" width="10" height="10">
  <data encoding="csv">
13,14,15,16,14,15,14,15,16,17,
24,25,26,27,27,27,25,36,37,28,
35,36,37,38,38,38,36,47,0,39,
46,26,25,26,49,0,25,0,49,50,
35,37,36,37,48,25,0,25,27,39,
35,37,38,26,25,0,25,0,25,39,
24,48,49,37,36,37,25,49,36,39,
35,25,26,25,26,38,49,37,38,39,
46,36,37,36,37,49,38,48,49,39,
57,58,59,60,59,60,58,59,60,61
</data>
 </layer>
</map>
